src/images/element_like.svg

<svg width="22" height="19" viewBox="0 0 22 19" fill="none" xmlns="http://www.w3.org/2000/svg">
<path d="M20.2991 9.78586C22.567 7.54338 22.567 3.90213 20.2991 1.68186C18.0311 -0.560619 14.3486 -0.560619 12.0806 1.68186L10.9804 2.792L9.88007 1.70406C7.61215 -0.560619 3.92957 -0.560619 1.6841 1.68186C0.583822 2.76979 0 4.21297 0 5.74496C0 7.27695 0.606277 8.72013 1.6841 9.80806L10.9804 19L20.2991 9.78586ZM1.4371 5.74496C1.4371 4.59042 1.8862 3.52469 2.71702 2.72539C3.5703 1.88168 4.67058 1.45983 5.77086 1.45983C6.87114 1.45983 7.97142 1.88168 8.8247 2.72539L10.9804 4.83465L13.136 2.70318C14.8201 1.03798 17.582 1.03798 19.2437 2.70318C20.0521 3.50248 20.5236 4.56821 20.5236 5.72276C20.5236 6.8773 20.0745 7.94303 19.2437 8.74233L10.9804 16.9351L2.71702 8.76453C1.90865 7.94303 1.4371 6.8773 1.4371 5.74496Z" fill="black"/>
</svg>

<svg width="22" height="19" fill="none" xmlns="http://www.w3.org/2000/svg"><path d="M20.3 9.8a5.7 5.7 0 000-8.1 5.9 5.9 0 00-8.2 0l-1.1 1-1.1-1a5.8 5.8 0 00-8.2 0 5.8 5.8 0 000 8.1L11 19l9.3-9.2zm-18.9-4c0-1.2.5-2.3 1.3-3a4.3 4.3 0 016.1 0l2.2 2L13 2.7a4.4 4.4 0 016.1 0 4.2 4.2 0 010 6L11 17 2.7 8.8a4.3 4.3 0 01-1.3-3z" fill="#000"/></svg>
